Sources/FrostedUI/Resources/Icons.xcassets/eye20.imageset/eye-20.svg

<svg width="20" height="20" viewBox="0 0 20 20" fill="none" xmlns="http://www.w3.org/2000/svg" data-fui-icon="true">
  <path
    d="M10.4041 2.0127C10.4278 2.01404 10.4517 2.01502 10.4753 2.0166C10.6047 2.02519 10.733 2.03743 10.8601 2.05273C10.8823 2.05541 10.9044 2.05865 10.9265 2.06152C11.1896 2.09567 11.4478 2.1435 11.7009 2.2041C11.7215 2.20903 11.742 2.21464 11.7625 2.21973C11.8847 2.25009 12.0059 2.28334 12.1257 2.31934C12.1449 2.3251 12.1642 2.33101 12.1833 2.33691C12.3214 2.37952 12.4578 2.42603 12.5925 2.47559C12.7232 2.52363 12.8528 2.57389 12.9802 2.62793C13.0279 2.64814 13.0746 2.6704 13.1218 2.69141C13.1899 2.7217 13.2588 2.75035 13.3259 2.78223C13.3395 2.78869 13.3529 2.79656 13.366 2.80371C14.7537 3.47157 15.9413 4.46948 16.8894 5.46484C17.2637 5.85786 17.6058 6.25741 17.9158 6.64453C17.9361 6.66989 17.9573 6.69447 17.9773 6.71973C18.0283 6.78407 18.0766 6.84952 18.1257 6.91309C18.2327 7.05142 18.3364 7.18685 18.4343 7.32031C18.4908 7.39726 18.545 7.47393 18.5984 7.54883C18.6831 7.66751 18.7646 7.78298 18.8416 7.89551C18.8876 7.96281 18.9321 8.02901 18.9753 8.09375C19.0421 8.19384 19.1058 8.29062 19.1658 8.38379C19.2122 8.45598 19.2563 8.52625 19.2986 8.59375C19.3459 8.6693 19.3913 8.74147 19.4333 8.81055C19.4703 8.87115 19.5051 8.92924 19.5378 8.98438C19.6848 9.23149 19.7909 9.42134 19.8523 9.53516C20.0101 9.82778 20.0101 10.1722 19.8523 10.4648C19.7922 10.5762 19.6897 10.7606 19.5476 11C19.5129 11.0585 19.4748 11.1198 19.4353 11.1846C19.3941 11.2522 19.3507 11.3235 19.3044 11.3975C19.2656 11.4595 19.2248 11.5237 19.1824 11.5898C19.1183 11.6897 19.0493 11.7934 18.9773 11.9014C18.9333 11.9673 18.8884 12.035 18.8416 12.1035C18.7649 12.2157 18.6838 12.3309 18.5994 12.4492C18.5457 12.5245 18.4911 12.6014 18.4343 12.6787C18.3451 12.8003 18.2507 12.9232 18.1541 13.0488C18.0958 13.1245 18.0382 13.2025 17.9773 13.2793C17.9573 13.3046 17.9361 13.3291 17.9158 13.3545C17.6057 13.7418 17.2639 14.1419 16.8894 14.5352C15.9414 15.5304 14.7536 16.5275 13.366 17.1953C13.3528 17.2025 13.3397 17.2112 13.3259 17.2178C13.2588 17.2497 13.1899 17.2783 13.1218 17.3086C13.0746 17.3296 13.0279 17.3519 12.9802 17.3721C12.8528 17.4261 12.7232 17.4764 12.5925 17.5244C12.4578 17.574 12.3214 17.6205 12.1833 17.6631C12.1642 17.669 12.1449 17.6749 12.1257 17.6807C12.0059 17.7167 11.8847 17.7499 11.7625 17.7803C11.742 17.7854 11.7215 17.791 11.7009 17.7959C11.4478 17.8565 11.1896 17.9043 10.9265 17.9385C10.9044 17.9413 10.8823 17.9446 10.8601 17.9473C10.733 17.9626 10.6047 17.9748 10.4753 17.9834C10.4517 17.985 10.4278 17.986 10.4041 17.9873C10.2706 17.9948 10.1356 18 9.99976 18C9.86384 18 9.72903 17.9949 9.59546 17.9873C9.57171 17.986 9.54784 17.985 9.52417 17.9834C9.39514 17.9748 9.26717 17.9625 9.14038 17.9473C9.11695 17.9444 9.09342 17.9415 9.07007 17.9385C8.80797 17.9043 8.55075 17.8563 8.29858 17.7959C8.27804 17.791 8.25754 17.7854 8.23706 17.7803C8.11478 17.7499 7.99364 17.7167 7.87378 17.6807C7.85428 17.6748 7.83462 17.6691 7.81519 17.6631C7.69161 17.6249 7.56894 17.5848 7.448 17.541C7.30503 17.4893 7.16425 17.4329 7.02515 17.374C6.97064 17.3509 6.91696 17.3259 6.86304 17.3018C6.79997 17.2736 6.73582 17.2473 6.67358 17.2178C6.66037 17.2115 6.64816 17.2032 6.6355 17.1963C5.24729 16.5284 4.05943 15.5308 3.11108 14.5352C2.73762 14.1431 2.39606 13.7447 2.08667 13.3584C2.06534 13.3318 2.04324 13.3058 2.02222 13.2793C1.96132 13.2025 1.90369 13.1245 1.84546 13.0488C1.7488 12.9232 1.65439 12.8003 1.56519 12.6787C1.49445 12.5823 1.42704 12.4867 1.36108 12.3936C1.29794 12.3044 1.2362 12.2174 1.17749 12.1318C1.11003 12.0335 1.04563 11.9376 0.984131 11.8447C0.944236 11.7845 0.905278 11.7256 0.86792 11.668C0.801157 11.5649 0.738946 11.4658 0.68042 11.3721C0.640098 11.3075 0.601545 11.2453 0.565186 11.1855C0.525561 11.1205 0.487726 11.0587 0.452881 11C0.31067 10.7603 0.207295 10.5762 0.147217 10.4648C-0.0106421 10.1722 -0.0106418 9.82782 0.147217 9.53516L0.188232 9.46289C0.251206 9.34814 0.342174 9.18568 0.460693 8.98633C0.498437 8.92284 0.539537 8.85587 0.582764 8.78516C0.614972 8.73247 0.648142 8.67746 0.68335 8.62109C0.740891 8.52897 0.802469 8.43206 0.86792 8.33105C0.908541 8.26837 0.951256 8.2044 0.994873 8.13867C1.05321 8.05076 1.11385 7.95994 1.17749 7.86719C1.24496 7.76885 1.31609 7.66841 1.3894 7.56543C1.44654 7.48519 1.50455 7.40294 1.56519 7.32031C1.66324 7.1867 1.76771 7.05158 1.87476 6.91309C2.23762 6.44365 2.6497 5.94923 3.11108 5.46484C4.05952 4.46914 5.24713 3.47058 6.6355 2.80273C6.64804 2.79588 6.66051 2.78844 6.67358 2.78223C6.73582 2.75267 6.79997 2.72644 6.86304 2.69824C6.91696 2.67411 6.97064 2.64906 7.02515 2.62598C7.16481 2.56687 7.30639 2.51086 7.44995 2.45898C7.57033 2.41546 7.6922 2.37489 7.81519 2.33691C7.83462 2.33091 7.85428 2.32519 7.87378 2.31934C7.99364 2.28333 8.11478 2.25009 8.23706 2.21973C8.25754 2.21464 8.27804 2.20903 8.29858 2.2041C8.55075 2.1437 8.80797 2.09566 9.07007 2.06152C9.09342 2.05848 9.11695 2.05556 9.14038 2.05273C9.26717 2.03748 9.39514 2.02518 9.52417 2.0166C9.54784 2.01502 9.57171 2.01404 9.59546 2.0127C9.72903 2.00515 9.86384 2.00001 9.99976 2C10.1356 2 10.2706 2.00517 10.4041 2.0127ZM9.68628 3.50879C9.66449 3.51 9.64258 3.51123 9.62085 3.5127C9.5164 3.51975 9.41251 3.53029 9.30933 3.54297C9.30027 3.54408 9.29103 3.54475 9.28198 3.5459C9.21262 3.55476 9.14373 3.56682 9.07495 3.57812C8.99452 3.59132 8.91433 3.60562 8.83472 3.62207C8.78909 3.63151 8.74335 3.64089 8.698 3.65137C8.60497 3.67284 8.51254 3.69694 8.42065 3.72266C6.80304 4.17552 5.36978 5.26783 4.19702 6.49902C3.85204 6.86121 3.53598 7.23009 3.24976 7.58789C3.23295 7.6089 3.21557 7.62945 3.19897 7.65039C3.13581 7.73008 3.07547 7.81029 3.01538 7.88867C2.93369 7.99523 2.85396 8.09979 2.77808 8.20312C2.72694 8.27276 2.67809 8.34233 2.62964 8.41016C2.55342 8.51685 2.47937 8.62036 2.40991 8.72168C2.35277 8.80504 2.29833 8.88675 2.24585 8.96582C2.20099 9.0334 2.15736 9.09906 2.11597 9.16309C2.06508 9.2418 2.01702 9.3179 1.97144 9.39062C1.92779 9.46026 1.88707 9.52733 1.84839 9.59082C1.7524 9.74838 1.67278 9.88674 1.60815 10C1.67221 10.1123 1.75058 10.2494 1.84546 10.4053C1.88266 10.4664 1.9218 10.5308 1.96362 10.5977C2.00543 10.6645 2.0501 10.7337 2.09644 10.8057C2.13698 10.8686 2.17942 10.9335 2.22339 11C2.28253 11.0895 2.34469 11.1822 2.40991 11.2773C2.47095 11.3664 2.53505 11.4575 2.60132 11.5508C2.65838 11.6311 2.71721 11.713 2.77808 11.7959C2.85396 11.8992 2.93369 12.0038 3.01538 12.1104C3.07547 12.1887 3.13581 12.2689 3.19897 12.3486C3.20929 12.3616 3.21983 12.3746 3.23022 12.3877C3.52155 12.7532 3.84418 13.1305 4.19702 13.501C5.36972 14.7321 6.80314 15.8235 8.42065 16.2764C8.51256 16.3021 8.60495 16.3262 8.698 16.3477C8.74336 16.3581 8.78908 16.3675 8.83472 16.377C8.91435 16.3934 8.99451 16.4077 9.07495 16.4209C9.14374 16.4322 9.2126 16.4443 9.28198 16.4531C9.29103 16.4543 9.30027 16.4549 9.30933 16.4561C9.41252 16.4687 9.51638 16.4793 9.62085 16.4863C9.64259 16.4878 9.66449 16.489 9.68628 16.4902C9.79014 16.496 9.89469 16.5 9.99976 16.5C10.1047 16.5 10.2095 16.496 10.3132 16.4902C10.3344 16.4891 10.3556 16.4877 10.3767 16.4863C10.4815 16.4793 10.5857 16.4687 10.6892 16.4561C10.6983 16.455 10.7075 16.4543 10.7166 16.4531C10.7852 16.4444 10.8535 16.433 10.9216 16.4219C11.0034 16.4085 11.0848 16.3937 11.1658 16.377C11.2108 16.3676 11.2558 16.358 11.3005 16.3477C11.3979 16.3252 11.4945 16.2996 11.5906 16.2725C13.2035 15.8176 14.6335 14.7293 15.8035 13.501C16.1563 13.1305 16.4789 12.7532 16.7703 12.3877C16.7805 12.3748 16.7903 12.3615 16.8005 12.3486C16.8565 12.2781 16.9091 12.2063 16.9626 12.1367C17.0594 12.011 17.1543 11.8888 17.2429 11.7676C17.2819 11.7143 17.3188 11.6606 17.3562 11.6084C17.4461 11.4829 17.5324 11.3613 17.613 11.2432C17.6561 11.1801 17.6977 11.1182 17.738 11.0576C17.8017 10.9621 17.8619 10.8697 17.9187 10.7812C17.9512 10.7306 17.9822 10.6809 18.0125 10.6328C18.0675 10.5453 18.1194 10.4627 18.1667 10.3848C18.2561 10.2375 18.3301 10.1073 18.3914 10C18.3268 9.88683 18.248 9.74819 18.1521 9.59082C18.1088 9.51977 18.0619 9.4449 18.0125 9.36621C17.9822 9.31814 17.9512 9.26843 17.9187 9.21777C17.8556 9.11939 17.7882 9.01624 17.7166 8.90918C17.683 8.85895 17.6485 8.80776 17.613 8.75586C17.5324 8.63775 17.4461 8.51616 17.3562 8.39062C17.3174 8.33643 17.2786 8.28093 17.238 8.22559C17.1507 8.10634 17.0577 7.98586 16.9626 7.8623C16.9091 7.79276 16.8565 7.72095 16.8005 7.65039C16.7839 7.62945 16.7666 7.6089 16.7498 7.58789C16.6224 7.42874 16.4905 7.26629 16.3513 7.10449L16.3494 7.10254C16.1763 6.90142 15.9942 6.69926 15.8035 6.49902C14.6334 5.27065 13.2036 4.18137 11.5906 3.72656C11.4945 3.69947 11.3979 3.67381 11.3005 3.65137C11.2558 3.64104 11.2108 3.63138 11.1658 3.62207C11.0848 3.60535 11.0034 3.59051 10.9216 3.57715C10.8535 3.56599 10.7852 3.55465 10.7166 3.5459C10.7075 3.54475 10.6983 3.54407 10.6892 3.54297C10.5857 3.53028 10.4815 3.51973 10.3767 3.5127C10.3556 3.51129 10.3344 3.50996 10.3132 3.50879C10.2095 3.503 10.1047 3.5 9.99976 3.5C9.89471 3.50001 9.79012 3.50298 9.68628 3.50879ZM9.99976 6C12.2088 6.00007 13.9998 7.79091 13.9998 10C13.9998 12.2091 12.2088 13.9999 9.99976 14C7.79079 13.9998 5.99976 12.209 5.99976 10C5.99976 7.79098 7.79079 6.0002 9.99976 6ZM9.99976 7.5C8.61921 7.5002 7.49976 8.61941 7.49976 10C7.49976 11.3806 8.61921 12.4998 9.99976 12.5C11.3804 12.4999 12.4998 11.3807 12.4998 10C12.4998 8.61933 11.3804 7.50007 9.99976 7.5Z"
    fill="currentColor"
  />
</svg>

<svg xmlns="http://www.w3.org/2000/svg" width="20" height="20" fill="none" data-fui-icon="true" viewBox="0 0 20 20"><path fill="currentColor" d="m10.404 2.013.071.004q.195.012.385.036l.067.009q.394.051.774.142l.061.016a8 8 0 0 1 .83.256q.196.071.388.152.072.03.142.063.103.045.204.091l.04.022c1.388.668 2.575 1.665 3.523 2.66.375.394.717.793 1.027 1.18l.061.076q.076.097.149.193.16.207.308.407.085.116.164.229a22 22 0 0 1 .568.835l.133.21q.07.112.134.217l.105.173c.147.247.253.437.314.551a.97.97 0 0 1 0 .93c-.06.111-.162.296-.304.535l-.113.185-.13.213a21 21 0 0 1-.328.503l-.135.203q-.116.168-.243.345l-.165.23q-.134.181-.28.37-.086.114-.177.23l-.061.075c-.31.388-.652.788-1.027 1.181-.948.995-2.135 1.992-3.523 2.66l-.04.023q-.101.046-.204.09-.07.034-.142.064a8.5 8.5 0 0 1-1.218.408l-.061.016q-.38.09-.774.143l-.067.008a7 7 0 0 1-.385.036l-.07.004a7.112 7.112 0 0 1-.809 0l-.072-.004a7 7 0 0 1-.384-.036l-.07-.008a8 8 0 0 1-.771-.143l-.062-.016a8 8 0 0 1-.363-.1q-.03-.007-.059-.017a8 8 0 0 1-.79-.289l-.162-.072q-.095-.041-.19-.084-.02-.01-.037-.022c-1.389-.668-2.577-1.665-3.525-2.66-.373-.393-.715-.791-1.024-1.178l-.065-.079q-.09-.116-.177-.23a20 20 0 0 1-.28-.37l-.204-.285-.184-.262a21 21 0 0 1-.612-.947L.453 11c-.142-.24-.246-.424-.306-.535a.97.97 0 0 1 0-.93l.041-.072c.063-.115.154-.277.273-.477q.056-.095.122-.2l.1-.165.185-.29q.06-.095.127-.192a21 21 0 0 1 .394-.574l.176-.245q.148-.199.31-.407c.363-.47.775-.964 1.236-1.448.949-.996 2.136-1.994 3.525-2.662q.018-.012.038-.02.094-.044.189-.085l.162-.072a9 9 0 0 1 .79-.29q.03-.007.059-.017.18-.054.363-.1l.062-.015a7.4 7.4 0 0 1 1.225-.187l.071-.004Q9.796 2 10 2t.404.013m-.718 1.496a5 5 0 0 0-.377.034l-.027.003q-.104.014-.207.032-.12.02-.24.044-.07.014-.137.03a6 6 0 0 0-.277.07C6.803 4.177 5.37 5.269 4.197 6.5a17 17 0 0 0-.947 1.089l-.051.062q-.094.12-.184.239-.122.159-.237.314l-.148.207q-.115.16-.22.312-.086.125-.164.244-.068.1-.13.197l-.145.228-.123.2q-.143.238-.24.409c.064.112.143.25.237.405l.119.193.132.208a20 20 0 0 0 .92 1.304q.09.119.183.239l.031.039c.292.365.614.742.967 1.113 1.173 1.231 2.606 2.323 4.224 2.775q.138.039.277.072l.137.029q.12.024.24.044.104.017.207.032l.027.003q.155.02.312.03l.065.004a6 6 0 0 0 .69-.004q.159-.01.313-.03l.028-.003q.102-.014.205-.031a6 6 0 0 0 .669-.15c1.613-.454 3.043-1.543 4.213-2.771.352-.37.675-.748.966-1.113l.03-.04q.084-.106.163-.211.145-.188.28-.37.058-.08.113-.159a20 20 0 0 0 .563-.827l.093-.148.155-.248c.09-.147.163-.278.224-.385q-.096-.171-.239-.41l-.14-.224q-.044-.073-.093-.148a19 19 0 0 0-.563-.827q-.058-.082-.118-.165-.131-.179-.275-.364-.08-.105-.163-.212l-.05-.062q-.191-.24-.399-.484l-.002-.001a16 16 0 0 0-.546-.604c-1.17-1.228-2.6-2.318-4.212-2.772a6 6 0 0 0-.67-.15q-.101-.017-.204-.031l-.028-.003a5.7 5.7 0 0 0-1.003-.034M10 6a4 4 0 1 1 0 8 4 4 0 0 1 0-8m0 1.5a2.5 2.5 0 1 0 0 5 2.5 2.5 0 0 0 0-5"/></svg>
